X:1
T:Title
%%score { ( 1 3 ) | ( 2 4 ) }
L:1/8
Q:1/4=88
M:4/4
K:Eb
V:1 treble nm="Grand Piano"
V:3 treble 
V:2 bass 
V:4 bass 
V:1
 G2 FE G2 FE | B B2 c B4 | G2 FE G2 FE | B B2 c B4 | [Fd]2 [Ac][GB] [FA]2 GF | c2 BA G4 | %6
w: Charels~H.~Gabriel,~Jr. * * * * *||||||
 [=A,EF]2 [EG][CF=A] [B,FB]2 [Fc][Fd] | [Ge]2 [Fd][Ec] B-[EB-] [FB]2 | B G2 F E2 G[FA] | %9
w: |||
 [GB] [Gc]2 [Ad] [Ge]4 | [Ae] [Ad]2 [Af] [Ac]4 | [Gc] [GB]2 [Ge] G4 | B G2 F E2 G[FA] | %13
w: ||||
 [GB] [Gc]2 [Ad] [Ge]4 |[M:17/16] fedcB[Ge]3/2[=A,E][A,EF] | %15
w: ||
[M:4/4] [B,EG] [B,DG]2 [A,B,F] [G,B,E]4 |] %16
w: |
V:2
 [E,B,E]2 [E,A,B,][E,G,B,] [E,B,E]2 [E,A,B,][E,G,B,] | [E,G,E] [E,G,E]2 [E,A,E] [E,G,E]4 | %2
 [E,B,E]2 [E,A,B,][E,G,B,] [E,B,E]2 [E,A,B,][E,G,B,] | [F,A,D] [F,A,D]2 [F,A,D] [F,A,D]4 | %4
 [B,,B,]2 [B,,B,][B,,B,] [B,,B,]2 [B,E][A,B,D] | [G,B,E]2 [G,B,E][F,B,D] [E,B,E]4 | %6
 C,2 F,E, D,2 [C,=A,][B,,B,] | [E,B,]2 [F,B,][F,=A,] z G, _A,2 | %8
 [E,G,E] [E,B,E]2 [E,A,B,] [E,G,B,]2 [E,B,E][E,B,] | [E,E] [E,E]2 [E,B,] [E,B,]4 | %10
 [F,B,] [F,B,]2 [F,D] [B,D]4 | [E,E] [E,E]2 [E,B,] [E,B,E]4 | %12
 [E,G,E] [E,B,E]2 [E,A,B,] [E,G,B,]2 [E,B,E][E,B,] | [E,E] [E,E]2 [E,B,] [E,B,]4 | %14
[M:17/16][K:treble] [A,CA][A,CA][A,CA][A,EA][G,E][K:bass][E,B,]3/2C,=B,, | %15
[M:4/4] B,, B,,2 B,, E,4 |] %16
V:3
 x8 | x8 | x8 | x8 | x8 | x8 | x8 | z4 .[B,D]2 z2 | x8 | x8 | x8 | x8 | x8 | x8 |[M:17/16] x17/2 | %15
[M:4/4] x8 |] %16
V:4
 x8 | x8 | x8 | x8 | x8 | x8 | x8 | z4 B,,4 | x8 | x8 | x8 | x8 | x8 | x8 | %14
[M:17/16][K:treble] x5[K:bass] x7/2 |[M:4/4] x8 |] %16

